X:1
T:Ne craignez pas - G139
C:J. Akepsimas
M:4/4
K:F
"Fa"F2FF "Do"E2E2|"Rem"DD2C- "Lam"C4|"Sib"D2ED "Fa"C2C2|"Sol"C=B,2C- "Do"C4||"Fa"A2BA "Do"G3E|"Rem"F2FG- "Lam"G4|
"Fa"A2BA "Do"G3E|"Rem"F2FE- "La"E4|"Fa"C2DE "Rem"F2F2|"Solm"B2"Fa"AG- "Do"G4|"Fa"F2AG "Rem"F2D2|"Solm"F"Do"E2F- "Fa"F4||
